!!!OTL: 578. Mein Haenschen. / a.
!!!ARE: Europa, Mitteleuropa, Deutschland, Norddeutschland, Mecklenburg
!!!SCT: K0578
!!!TXL: @@KSH
!!!YEM: Copyright 1995, estate of Helmut Schaffrath.
**kern	**text
*clefG2	*
*M2/4	*
*k[b-]	*
*F:	*
=1	=1
{8f	1._Häns-
8g	-chen
8a	ſaß
8b-	im
=2	=2
4cc	Schorn-
8cc}	-ſtein
{8cc	und
=3	=3
8dd	flick-
8b-	-te
8ff	ſei-
8dd	-ne
=4	=4
4cc	Schuh;
8r}	.
{8cc	da
=5	=5
8b-	kam
8b-	ein
8b-	wack-
8b-	-res
=6	=6
4a	Mäd-
8a}	-chen
{8a	und
=7	=7
8a	ſah
8g	ihm
8g	flei
8a	ßig
=8	=8
4f	ʒu.
4r}	.
=9	=9
{8f	2._Häns-
8g	-chen,
8a	willſt
8b-	du
=10	=10
4cc	frei-
8cc}	-en,
{8cc	ſo
=11	=11
8dd	frei-
8b-	-e
8ff	doch
8dd	nach
=12	=12
4cc	mir!
8r}	.
{8cc	Jch
=13	=13
8b-	hab
8b-	ein
8b-	blan-
8b-	-ken
=14	=14
4a	Tha-
8a}	-ler,
{8a	den
=15	=15
8a	will
8g	ich
8g	ge-
8a	-ben
=16	=16
4f	dir.
8r}	.
!LO:TX:a:t=Etwas raſcher.	!
{8c	3._Hans
=17	=17
8.f	nimm-
16a	-ſe
8a	nich,
8a	Hans
=18	=18
8.g	nimm-
16b-	-ſe
8b-}	nich,
{8b-	ſie
=19	=19
8a	hat
8f	en
8cc	ſchlim-
8a	-men
=20	=20
*	*^
4g	Faut!	(Fuß)
*	*v	*v
8r}	.
{8c	Leg
=21	=21
8.f	Pflaſ-
16a	-ter
8a	up,
8a	leg
=22	=22
8.g	Pflaſ-
16b-	-ter
8b-}	up,
{8b-	dann
=23	=23
8a	wird
8f	et
8g	wed-
8e	-der
=24	=24
*	*^
4f	gaut.	(gut).
*	*v	*v
4r}	.
==	==
!!!AGN: Kinder -, Spiel - Lied
!!!ONB: ESAC (Essen Associative Code) Database: KINDER
!!!AMT: simple duple
!!!AIN: vox
!!!EED: Helmut Schaffrath
!!!EEV: 1.0
!!!GTL: V. Allerlei Reime aus der Kinderstube, mit welchen die Kleinen sich selbst unterhalten.
!!Aus Norddeutschland.
!!@@COMMENT:"Aus dem Mecklenburgiſchen. Mel. und Text Erk J. 4, Nr. 29. Vollſtändiger Text im Niederdeutſchen Liederbuch Nr. 44: "Myn Henſchen ſeet in 'n Schorſteen" ic."
!!@@END:
!!!URL-scan: https://archive.org/details/DeutschesKinderliedUndKinderspiel/page/125/mode/1up
!!!ENC: Anna Maria Matuszewska
!!!EEV: 2024/30/08
*-	*-
